packages/foundations/assets/icons/functional/images/technology/wifi.svg

<svg xmlns="http://www.w3.org/2000/svg" width="32" height="32" fill="none"><path fill="#1A1C1F" fill-rule="evenodd" d="M14.773 5.548c-3.425.267-6.644 1.544-9.36 3.713-1.037.829-2.628 2.505-3.207 3.38-.192.291-.238.543-.155.861.202.78 1.135.991 1.686.383.076-.083.302-.368.503-.632.474-.621 1.885-2.033 2.533-2.533 2.316-1.786 4.785-2.797 7.627-3.124.924-.106 2.79-.079 3.67.053a15.1 15.1 0 0 1 7.229 3.138c.681.537 1.976 1.836 2.459 2.466.202.264.429.549.505.632.551.608 1.484.397 1.686-.383.128-.494.008-.73-.962-1.89-2.289-2.735-5.441-4.73-8.827-5.583-1.699-.429-3.727-.61-5.387-.481m.24 4.995c-3.429.298-6.612 2.087-8.784 4.938-.173.228-.35.497-.392.598a.98.98 0 0 0 .914 1.376c.401 0 .642-.159 1.025-.675 1.583-2.13 3.841-3.588 6.337-4.09.73-.147 2.256-.199 3.064-.105 1.174.136 2.548.59 3.614 1.194 1.331.754 2.426 1.727 3.484 3.096.169.219.371.414.495.477.772.399 1.679-.379 1.391-1.192-.195-.547-1.554-2.086-2.558-2.895-1.902-1.532-4.143-2.467-6.475-2.703a16 16 0 0 0-2.115-.019m.08 4.98c-1.273.159-2.53.681-3.607 1.496-.843.637-1.856 1.785-1.982 2.243-.16.586.335 1.218.954 1.218.377 0 .642-.169.989-.629.812-1.08 1.818-1.788 3.098-2.181.431-.132.543-.144 1.402-.146.815-.003.991.013 1.386.121a6 6 0 0 1 3.111 2.104c.464.614.634.731 1.058.731.57 0 1.083-.603.981-1.152-.071-.376-.892-1.396-1.61-2.001-1.079-.908-2.248-1.477-3.544-1.725-.552-.106-1.698-.146-2.236-.079m0 5.129a3.09 3.09 0 0 0-2.005 2.175c-.115.456-.077 1.232.081 1.68.23.646.791 1.302 1.386 1.62 1.205.642 2.556.441 3.531-.525.618-.612.901-1.262.901-2.072 0-.992-.493-1.92-1.319-2.483-.544-.371-.885-.476-1.615-.498-.531-.016-.66-.002-.96.103m1.313 1.957c.28.127.481.391.561.737.058.254.053.292-.077.557-.184.371-.427.537-.833.566-.6.044-1.035-.35-1.035-.938.001-.327.091-.555.293-.738.326-.296.705-.36 1.091-.184"/></svg>

<svg width="32" height="32" viewBox="0 0 32 32" fill="none" xmlns="http://www.w3.org/2000/svg"><path d="M14.773 5.548 C 11.348 5.815,8.129 7.092,5.413 9.261 C 4.376 10.090,2.785 11.766,2.206 12.641 C 2.014 12.932,1.968 13.184,2.051 13.502 C 2.253 14.282,3.186 14.493,3.737 13.885 C 3.813 13.802,4.039 13.517,4.240 13.253 C 4.714 12.632,6.125 11.220,6.773 10.720 C 9.089 8.934,11.558 7.923,14.400 7.596 C 15.324 7.490,17.190 7.517,18.070 7.649 C 20.743 8.050,23.159 9.099,25.299 10.787 C 25.980 11.324,27.275 12.623,27.758 13.253 C 27.960 13.517,28.187 13.802,28.263 13.885 C 28.814 14.493,29.747 14.282,29.949 13.502 C 30.077 13.008,29.957 12.772,28.987 11.612 C 26.698 8.877,23.546 6.882,20.160 6.029 C 18.461 5.600,16.433 5.419,14.773 5.548 M15.013 10.543 C 11.584 10.841,8.401 12.630,6.229 15.481 C 6.056 15.709,5.879 15.978,5.837 16.079 C 5.558 16.747,6.029 17.455,6.751 17.455 C 7.152 17.455,7.393 17.296,7.776 16.780 C 9.359 14.650,11.617 13.192,14.113 12.690 C 14.843 12.543,16.369 12.491,17.177 12.585 C 18.351 12.721,19.725 13.175,20.791 13.779 C 22.122 14.533,23.217 15.506,24.275 16.875 C 24.444 17.094,24.646 17.289,24.770 17.352 C 25.542 17.751,26.449 16.973,26.161 16.160 C 25.966 15.613,24.607 14.074,23.603 13.265 C 21.701 11.733,19.460 10.798,17.128 10.562 C 16.614 10.511,15.505 10.500,15.013 10.543 M15.093 15.523 C 13.820 15.682,12.563 16.204,11.486 17.019 C 10.643 17.656,9.630 18.804,9.504 19.262 C 9.344 19.848,9.839 20.480,10.458 20.480 C 10.835 20.480,11.100 20.311,11.447 19.851 C 12.259 18.771,13.265 18.063,14.545 17.670 C 14.976 17.538,15.088 17.526,15.947 17.524 C 16.762 17.521,16.938 17.537,17.333 17.645 C 18.536 17.972,19.694 18.756,20.444 19.749 C 20.908 20.363,21.078 20.480,21.502 20.480 C 22.072 20.480,22.585 19.877,22.483 19.328 C 22.412 18.952,21.591 17.932,20.873 17.327 C 19.794 16.419,18.625 15.850,17.329 15.602 C 16.777 15.496,15.631 15.456,15.093 15.523 M15.093 20.652 C 14.083 21.006,13.344 21.807,13.088 22.827 C 12.973 23.283,13.011 24.059,13.169 24.507 C 13.399 25.153,13.960 25.809,14.555 26.127 C 15.760 26.769,17.111 26.568,18.086 25.602 C 18.704 24.990,18.987 24.340,18.987 23.530 C 18.987 22.538,18.494 21.610,17.668 21.047 C 17.124 20.676,16.783 20.571,16.053 20.549 C 15.522 20.533,15.393 20.547,15.093 20.652 M16.406 22.609 C 16.686 22.736,16.887 23.000,16.967 23.346 C 17.025 23.600,17.020 23.638,16.890 23.903 C 16.706 24.274,16.463 24.440,16.057 24.469 C 15.457 24.513,15.022 24.119,15.022 23.531 C 15.023 23.204,15.113 22.976,15.315 22.793 C 15.641 22.497,16.020 22.433,16.406 22.609 " fill="#1A1C1F" stroke="none" fill-rule="evenodd"></path></svg>
